X: 1
T: Am Monadh Liath (The Sportsman's Haunt)
R: strathspey
S: Fraser colln.
Z: arr. T. Traub 10-23-2014
M: 4/4
L: 1/8
K: Bm
|: F |\
"Bm"D<B,B,d B>FF>B | "A"A<EE>D C<A,A,<F |\
"Bm"D<B,B,>d B>F F<B | "F#m"A>FE>C "Bm"B,/B,/B, B, :|
f |\
"Bm"e/d/c/B/ f>B d>f b<f | "A"a>f e<a c<A a>A |\
"Bm"e/d/c/B/ f>B d>f b>f | "F#m"a>fe>c "Bm"B/B/B B |]
f |\
"Bm"e/d/c/B/ f>B d>f b<f | "A"a>f e<a c<A a>A |\
"Bm"e/d/c/B/ f<d "A"e<c "Bm"d>B | "F#m"A<FE>C "Bm"B,/B,/B, B, |]
